src/img/discord_icon.svg

<svg width="27" height="22" viewBox="0 0 27 22" fill="none" xmlns="http://www.w3.org/2000/svg">
<path d="M22.5245 2.58012C20.8414 1.79268 19.0419 1.22039 17.1605 0.894531C16.9294 1.31228 16.6595 1.87415 16.4734 2.32112C14.4734 2.02035 12.4918 2.02035 10.5286 2.32112C10.3425 1.87415 10.0664 1.31228 9.83331 0.894531C7.94987 1.22039 6.14824 1.79478 4.46521 2.58429C1.07053 7.7141 0.150288 12.7165 0.61041 17.6478C2.86194 19.3292 5.04394 20.3506 7.18912 21.019C7.71878 20.29 8.19116 19.5151 8.59811 18.6985C7.82306 18.404 7.08074 18.0405 6.37933 17.6186C6.56541 17.4808 6.74743 17.3366 6.92328 17.1883C11.2014 19.1893 15.8496 19.1893 20.0766 17.1883C20.2545 17.3366 20.4365 17.4808 20.6206 17.6186C19.9171 18.0426 19.1727 18.406 18.3977 18.7006C18.8046 19.5151 19.275 20.2921 19.8067 21.0211C21.9539 20.3527 24.138 19.3313 26.3895 17.6478C26.9294 11.9311 25.4672 6.9747 22.5245 2.58012ZM9.18094 14.6151C7.8967 14.6151 6.84351 13.4162 6.84351 11.9562C6.84351 10.4962 7.87421 9.29523 9.18094 9.29523C10.4877 9.29523 11.5409 10.4941 11.5184 11.9562C11.5204 13.4162 10.4877 14.6151 9.18094 14.6151ZM17.819 14.6151C16.5347 14.6151 15.4815 13.4162 15.4815 11.9562C15.4815 10.4962 16.5122 9.29523 17.819 9.29523C19.1257 9.29523 20.1789 10.4941 20.1564 11.9562C20.1564 13.4162 19.1257 14.6151 17.819 14.6151Z" fill="white"/>
</svg>

<svg width="27" height="22" fill="none" xmlns="http://www.w3.org/2000/svg"><path d="M22.524 2.58A21.177 21.177 0 0017.16.895c-.23.417-.5.98-.687 1.426-2-.3-3.981-.3-5.944 0A15.263 15.263 0 009.833.895c-1.883.325-3.685.9-5.368 1.69C1.071 7.714.15 12.716.61 17.647c2.252 1.681 4.434 2.703 6.58 3.371a16.367 16.367 0 001.408-2.32 13.856 13.856 0 01-2.219-1.08 11 11 0 00.544-.43c4.278 2 8.927 2 13.154 0 .177.148.36.292.544.43-.704.424-1.448.787-2.223 1.082.407.814.877 1.591 1.409 2.32 2.147-.668 4.331-1.69 6.583-3.373.54-5.717-.923-10.673-3.866-15.068zM9.181 14.615c-1.284 0-2.337-1.199-2.337-2.659 0-1.46 1.03-2.66 2.337-2.66 1.307 0 2.36 1.198 2.337 2.66.002 1.46-1.03 2.66-2.337 2.66zm8.638 0c-1.284 0-2.337-1.199-2.337-2.659 0-1.46 1.03-2.66 2.337-2.66 1.307 0 2.36 1.198 2.337 2.66 0 1.46-1.03 2.66-2.337 2.66z" fill="#fff"/></svg>
